modules/dripicons/icons/scale.svg

<svg xmlns="http://www.w3.org/2000/svg" width="92" height="92" viewBox="0 0 92 92"><path d="M47.2 63c0 2.2-1.8 4-4 4H4c-2.2 0-4-1.8-4-4s1.8-4 4-4h39.2c2.2 0 4 1.8 4 4zM88 59h-3.4c-2.2 0-4 1.8-4 4s1.8 4 4 4H88c2.2 0 4-1.8 4-4s-1.8-4-4-4zM14.3 28.9c0-6.6 5.4-11.9 12-11.9s12 5.4 12 11.9-5.4 11.9-12 11.9-12-5.3-12-11.9zm8 0c0 2.2 1.8 3.9 4 3.9s4-1.8 4-3.9-1.8-3.9-4-3.9-4 1.8-4 3.9zm53.1 34.2c0 6.6-5.4 11.9-12 11.9s-12-5.4-12-11.9 5.4-11.9 12-11.9c6.6-.1 12 5.3 12 11.9zm-8 0c0-2.2-1.8-3.9-4-3.9s-4 1.8-4 3.9 1.8 3.9 4 3.9 4-1.8 4-3.9zM4 33h2.3c2.2 0 4-1.8 4-4s-1.8-4-4-4H4c-2.2 0-4 1.8-4 4s1.8 4 4 4zm88-4c0-2.2-1.8-4-4-4H47.3c-2.2 0-4 1.8-4 4s1.8 4 4 4H88c2.2 0 4-1.8 4-4z"/></svg>

<?xml version="1.0" encoding="utf-8"?>
<!-- Generator: Adobe Illustrator 19.2.1, SVG Export Plug-In . SVG Version: 6.00 Build 0)  -->
<svg version="1.1" id="Layer_1" xmlns="http://www.w3.org/2000/svg" xmlns:xlink="http://www.w3.org/1999/xlink" x="0px" y="0px"
	 width="92px" height="92px" viewBox="0 0 92 92" enable-background="new 0 0 92 92" xml:space="preserve">
<path id="XMLID_596_" d="M47.2,63c0,2.2-1.8,4-4,4H4c-2.2,0-4-1.8-4-4s1.8-4,4-4h39.2C45.4,59,47.2,60.8,47.2,63z M88,59h-3.4
	c-2.2,0-4,1.8-4,4s1.8,4,4,4H88c2.2,0,4-1.8,4-4S90.2,59,88,59z M14.3,28.9c0-6.6,5.4-11.9,12-11.9s12,5.4,12,11.9
	s-5.4,11.9-12,11.9S14.3,35.5,14.3,28.9z M22.3,28.9c0,2.2,1.8,3.9,4,3.9s4-1.8,4-3.9s-1.8-3.9-4-3.9S22.3,26.8,22.3,28.9z
	 M75.4,63.1c0,6.6-5.4,11.9-12,11.9c-6.6,0-12-5.4-12-11.9s5.4-11.9,12-11.9C70,51.1,75.4,56.5,75.4,63.1z M67.4,63.1
	c0-2.2-1.8-3.9-4-3.9c-2.2,0-4,1.8-4,3.9s1.8,3.9,4,3.9C65.6,67,67.4,65.2,67.4,63.1z M4,33h2.3c2.2,0,4-1.8,4-4s-1.8-4-4-4H4
	c-2.2,0-4,1.8-4,4S1.8,33,4,33z M92,29c0-2.2-1.8-4-4-4H47.3c-2.2,0-4,1.8-4,4s1.8,4,4,4H88C90.2,33,92,31.2,92,29z"/>
</svg>
